Simply-Cyan-Circles/scalable/devices/network-modem.svg

<svg xmlns="http://www.w3.org/2000/svg" width="48" height="48" viewBox="0 0 12.7 12.7"><path d="M6.344.073a6.29 6.29 0 0 0-6.29 6.29 6.29 6.29 0 0 0 6.29 6.288 6.29 6.29 0 0 0 6.29-6.289 6.29 6.29 0 0 0-6.29-6.29zm-.018.936a5.407 5.407 0 0 1 5.407 5.407 5.407 5.407 0 0 1-5.407 5.407A5.407 5.407 0 0 1 .92 6.416 5.407 5.407 0 0 1 6.326 1.01zM3.451 2.25a.374.374 0 0 0-.374.375v3.509h-.392a.534.534 0 0 0-.535.534v2.601c0 .296.239.535.535.535h7.446a.534.534 0 0 0 .534-.535v-2.6a.534.534 0 0 0-.534-.535H3.825v-3.51a.374.374 0 0 0-.374-.374zm5.45 4.436a.588.588 0 0 1 .588.588.588.588 0 0 1-.587.588.588.588 0 0 1-.588-.588.588.588 0 0 1 .588-.588zm-2.137.036a.588.588 0 0 1 .588.588.588.588 0 0 1-.588.588.588.588 0 0 1-.588-.588.588.588 0 0 1 .588-.588z" fill="#5beedc"/></svg>

<?xml version="1.0" encoding="UTF-8" standalone="no"?>
<svg
   xmlns:dc="http://purl.org/dc/elements/1.1/"
   xmlns:cc="http://creativecommons.org/ns#"
   xmlns:rdf="http://www.w3.org/1999/02/22-rdf-syntax-ns#"
   xmlns:svg="http://www.w3.org/2000/svg"
   xmlns="http://www.w3.org/2000/svg"
   xmlns:sodipodi="http://sodipodi.sourceforge.net/DTD/sodipodi-0.dtd"
   xmlns:inkscape="http://www.inkscape.org/namespaces/inkscape"
   width="48"
   height="48"
   viewBox="0 0 12.7 12.7"
   version="1.1"
   id="svg4"
   sodipodi:docname="network-modem.svg"
   inkscape:version="0.92.4 (5da689c313, 2019-01-14)">
  <metadata
     id="metadata10">
    <rdf:RDF>
      <cc:Work
         rdf:about="">
        <dc:format>image/svg+xml</dc:format>
        <dc:type
           rdf:resource="http://purl.org/dc/dcmitype/StillImage" />
        <dc:title></dc:title>
      </cc:Work>
    </rdf:RDF>
  </metadata>
  <defs
     id="defs8" />
  <sodipodi:namedview
     pagecolor="#ffffff"
     bordercolor="#666666"
     borderopacity="1"
     objecttolerance="10"
     gridtolerance="10"
     guidetolerance="10"
     inkscape:pageopacity="0"
     inkscape:pageshadow="2"
     inkscape:window-width="1087"
     inkscape:window-height="480"
     id="namedview6"
     showgrid="false"
     inkscape:zoom="4.9166667"
     inkscape:cx="2.1355932"
     inkscape:cy="24"
     inkscape:window-x="0"
     inkscape:window-y="25"
     inkscape:window-maximized="0"
     inkscape:current-layer="svg4" />
  <path
     d="m 6.344,0.073 a 6.29,6.29 0 0 0 -6.29,6.29 6.29,6.29 0 0 0 6.29,6.288 6.29,6.29 0 0 0 6.29,-6.289 6.29,6.29 0 0 0 -6.29,-6.29 z M 6.326,1.009 A 5.407,5.407 0 0 1 11.733,6.416 5.407,5.407 0 0 1 6.326,11.823 5.407,5.407 0 0 1 0.92,6.416 5.407,5.407 0 0 1 6.326,1.01 Z M 3.451,2.25 A 0.374,0.374 0 0 0 3.077,2.625 V 6.134 H 2.685 A 0.534,0.534 0 0 0 2.15,6.668 v 2.601 c 0,0.296 0.239,0.535 0.535,0.535 h 7.446 a 0.534,0.534 0 0 0 0.534,-0.535 v -2.6 A 0.534,0.534 0 0 0 10.131,6.134 H 3.825 V 2.624 A 0.374,0.374 0 0 0 3.451,2.25 Z m 5.45,4.436 A 0.588,0.588 0 0 1 9.489,7.274 0.588,0.588 0 0 1 8.902,7.862 0.588,0.588 0 0 1 8.314,7.274 0.588,0.588 0 0 1 8.902,6.686 Z M 6.764,6.722 A 0.588,0.588 0 0 1 7.352,7.31 0.588,0.588 0 0 1 6.764,7.898 0.588,0.588 0 0 1 6.176,7.31 0.588,0.588 0 0 1 6.764,6.722 Z"
     id="path2"
     inkscape:connector-curvature="0"
     style="fill:#5beedc" />
</svg>
